X:625
T: John McHugh's
S: "The Killavil Sessions" (Ceoltoiri Coleman)
L: 1/8
M: 4/4
R: reel
K: A
AF | E3F A3B | c2 ec BA F2 | f2 ec ABcf | ecBA FBAF |
E3F A3B | c2 ec BA F2 | f2 ec ABcf | ecBc A2 :|
af | ecef agaf | ecBA FAAB | cBBB cBBB | cABA FAAf |
ecef agaf | ecBA FAAB | cBBB cBBB | ceBc A2 :|
